!!!COM: Beethoven, Ludwig van
!!!CDT: 1770///-1827///
!!!OTL: Piano Sonata no. 7 in D major
!!!OPS: 10
!!!ONM: 3
!!!OMV: 2
!!!OMD: Largo e mesto
**kern	**kern	**dynam
*staff2	*staff1	*staff1/2
*clefF4	*clefG2	*clefG2
*k[b-]	*k[b-]	*k[b-]
*d:	*d:	*d:
*M6/8	*M6/8	*M6/8
*MM40	*MM40	*MM40
=1-	=1-	=1-
*	*^	*
2.DD/ 2.FF/ 2.AA/ 2.D/	(8d/L	2.F\ 2.A\	p
.	8c#/	.	.
.	8d/J	.	.
.	8f/L	.	.
.	8c#/	.	.
.	8d/J)	.	.
=2	=2	=2	=2
2.DD/ 2.GG/ 2.BB-/ 2.D/	(8d/L	2.G\ 2.B-\	.
.	8c#/	.	.
.	8d/J	.	.
.	8g/L	.	.
.	8c#/	.	.
.	8d/J)	.	.
=3	=3	=3	=3
4CC#/ 4C#/	(8f/L	4G\ 4B-\	.
.	8e/	.	.
8DD/ 8D/	8d/J)	8G\ 8B-\	.
4EE/ 4E/	(4c#/	4G\ 4B-\	.
8DD/ 8D/	8d/)	8G\ 8B-\	.
=4	=4	=4	=4
4CC#/ 4C#/	(8f/L	4G\ 4B-\	<
.	8e/	.	.
8Cn/ 8D/	8f#/J	8A\ 8d\	.
4BB-/ 4D/	4d/ 4g/	4.r	.
8FF#/ 8AA/ 8F#/	(8c/ 8d/ 8a/)	.	.
*	*v	*v	*
=5	=5	=5
&(4GG/&) 4D/ 4G/	8B-/) 8d/ 8b-/	.
.	(8b-'\L	.
8r	8b-'\J	.
4r	8b-'\L	.
.	8b-'\	.
8r	8b-'\J)	.
=6	=6	=6
*^	*^	*
8e/L	4G\ 4B-\ 4c#\	(8ee/L	4g\ 4b-\ 4cc#\	.
8d#/	.	8dd#/	.	.
8e/J	8G\ 8B-\ 8c#\	8ee/J	8g\ 8b-\ 8cc#\	.
8e/L	4G\ 4B-\ 4c#\	8gg/L	4g\ 4b-\ 4cc#\	.
8d#/	.	8dd#/	.	.
8e/J	8G\ 8B-\ 8c#\	8ee/J)	8g\ 8b-\ 8cc#\	.
=7	=7	=7	=7	=7
8e/L	4G#\ 4Bn\ 4d\	(8ee/L	4g#\ 4bn\ 4dd\	.
8f/	.	8ff/)	.	.
8d/ 8f/J	8G#\ 8B\	8ff/J	8g#\ 8b\ 8dd\	.
4f/	4.G#\ 4.B\ 4.d\	4ff/	4.g#\ 4.b\ 4.dd\	.
(16.e/LL	.	(16.ee/LL	.	.
32d/JJk)	.	32dd/JJk)	.	.
*v	*v	*	*	*
*	*v	*v	*
=8	=8	=8
4A\ 4d\ 4f\	(8dd/L	.
.	8a/)	.
8r	8a'/J	.
4AA\ 4E\ 4G\	(8a/L	.
.	8c#/)	.
8r	8c#'/J	.
=9	=9	=9
(16D\LL	4d/	.
16A\	.	.
16F\	.	.
16A\	.	.
16D\	8r	.
16A\JJ)	.	.
.	aq/	.
(16C#\LL	(8.aa\L	.
16A\	.	.
16E\	.	.
16A\	16gg\L	.
16C#\	16ff\	.
16A\JJ)	16ee\JJ)	.
=10	=10	=10
(16D\LL	(16.gg\LL	.
16A\	.	.
.	32ff\Jk)	.
16F\	[8ff\J	.
16A\	.	.
16D\	32ff\LLL]	.
.	(64gg\L	.
.	64ff\J)	.
16A\JJ)	32ee\	.
.	32dd\JJJ	.
(16AA\LL	(16dd\LL	.
16A\	16cc#\J)	.
16G#\	(8cc#'\	.
16A\	.	.
16Gn\	8cc#'\J)	.
16A\JJ)	.	.
=11	=11	=11
(16F\LL	16.dd\LL	.
16A\	.	.
.	(32ee'\Jk	.
16d\	8ff'\J)	.
16A\	.	.
16F\	16r	.
16D\JJ)	16a\	.
.	(aq/	.
(16C#\LL	(8.aa\L)	.
16A\	.	.
16E\	.	.
16A\	16gg\L	.
16G\	16ff\	.
&(16A\JJ&))	16ee\JJ)	.
=12	=12	=12
(16D\LL	(16.gg\LL	.
16A\	.	.
.	32ff\JJk)	.
16G#\	(8.ff\L	.
16A\	.	.
16Cn\	.	.
16A\JJ)	16ff#\Jk)	.
.	gq/	.
(16BBn\LL	(8.gg\L	.
16Gn\	.	.
16D\	.	.
16G\	16ffn\L	.
16F\	16ee\	.
16G\JJ)	16dd\JJ)	.
=13	=13	=13
*^	*	*
4.r	(16C\LL	(8ff\L	.
.	16G\	.	.
.	16c\	8ee\J)	.
.	16Bn\	.	.
.	16A\	8r	.
.	16G\JJ)	.	.
4.F#/	16F#\LL	8r	.
.	16d\	.	.
.	16A\	8cc'\ (8dd'\L	.
.	16d\	.	.
.	16c\	8cc'\ 8dd'\J)	.
.	16d\JJ	.	.
=14	=14	=14	=14
*	*	*^	*
16G\LL	4G/	(8.ee/L	4.cc\	.
16e\	.	.	.	.
16c\	.	.	.	.
16e\	.	32ff/LL	.	.
.	.	32ee/JJ	.	.
16G\	8G/	16.dd'/L)	.	.
16e\JJ	.	.	.	.
.	.	32ee'/JJk	.	.
16G\LL	4G/	(8.gg/L	4.bn\	.
16f\	.	.	.	.
16d\	.	.	.	.
16f\	.	16ff/L)	.	.
16G\	8G/	(16ee'/	.	.
16f\JJ	.	16dd'/JJ)	.	.
=15	=15	=15	=15	=15
(16C\LL	4.r	(16dd#/LL	8cc\	<
16c\	.	16ee/JJ)	.	.
16AA\	.	8r	8r	.
16A\	.	.	.	.
16GG\	.	8r	8r	.
16G\JJ)	.	.	.	.
4FF#\	16FF#/LL	4.r	8r	.
.	16F#/	.	.	.
.	16AA/	.	8ddn'\ 8ccc'\ (8ddd'\L	.
.	16F#/	.	.	.
8FF#\	16FF#/	.	8dd'\ 8ccc'\ 8ddd'\J)	.
.	16F#/JJ	.	.	.
=16	=16	=16	=16	=16
.	.	(eeq/	.	.
16GG/LL	4.GG\	[8eee\L)	4.r	f
16G/	.	.	.	.
16C/	.	(32eee\LL]	.	.
.	.	32ccc\)	.	.
16G/	.	32gg'\	.	.
.	.	32ee'\JJJ	.	.
16E/	.	32cc'/LLL	.	.
.	.	32g'/	.	.
16G/JJ	.	32e'/	.	.
.	.	32c'/JJJ	.	p
16GG/LL	4GG\	(8.g/L	4Bn\	.
16G/	.	.	.	.
16D/	.	.	.	.
16G/	.	16f/L	.	.
16F/	8GG\	16d/	8B\	.
16G/JJ	.	16g/JJ)	.	.
=17	=17	=17	=17	=17
4E/	4C\	4c/	4r	.
8r	8r	16.c/LL	4d#\	p
.	.	32cc/JJk	.	.
(4A/	4.F\	(4cc/	.	.
.	.	.	4d#\	.
16Bn/LL	.	16bn/LL	.	.
16c/JJ)	.	16a/JJ)	.	.
=18	=18	=18	=18	=18
(8c/L	4E\	(8a/L	4e\	.
8Bn/J)	.	8g#/J)	.	.
8r	8r	(16.a/LL	8r	.
.	.	32bn/JJk)	.	.
8.A/L	4.F\	8cc/L	4d#\	.
.	.	32b/LL	.	.
.	.	32cc/	.	.
(32G#/LL	.	32b/	.	.
32A/	.	32cc/	.	.
32G#/	.	32ddn/	8d#\	.
32A/	.	32cc/	.	.
32Bn/	.	32b/	.	.
32c/JJJ)	.	32a/JJJ	.	.
=19	=19	=19	=19	=19
(8c/L	4E\	(8a/L	4e\	.
8Bn/J)	.	8g#/J)	.	.
8r	8r	16r	8r	.
.	.	16g#/	.	.
4.r	8.D\ 8.G#\ 8.B\L	8.f/ 8.g#/ 8.bn/ 8.ff/L	4.r	f
.	16E''\ 16G#''\ 16B''\L	16e''/ 16g#''/ 16b''/ 16ee''/L	.	.
.	16F''\ 16G#''\ 16B''\	16d''/ 16g#''/ 16b''/ 16dd''/	.	.
.	16BBn''\ 16D''\ 16B''\JJ	16f''/ 16g#''/ 16ff''/JJ	.	.
*v	*v	*	*	*
*	*v	*v	*
=20	=20	=20
8C''\ 8E''\ 8c''\	8e/ 8a/ 8ee/	.
8r	8r	.
8D'\ 8A'\ 8Bn'\L	8f'/ 8a'/ 8bn'/L	.
8E'\ 8A'\ 8c'\J	8e'/ 8a'/ 8cc'/J	.
8r	8r	.
8EE'/ 8E'/	8Bn'/ 8d'/ 8e'/ 8g#'/	.
=21	=21	=21
*^	*	*
4AA'/	4.r	4c'/ 4e'/ 4a'/	.
8AA/	.	8r	.
4C^/	4.FF\	4r	.
16BBn/LL	.	8D#/ (8d#/	.
16AA/JJ	.	.	.
=22	=22	=22	=22
8AA/L	4EE\	16E/ 16e/LK)	.
.	.	8e/ 8ee/	.
8GG#/J	.	.	.
.	.	16dn'/ 16ddn'/L	.
16.r	8r	16c'/ 16cc'/	.
.	.	16Bn'/ 16bn'/JJ	.
32AA/	.	.	.
8C/L	4.FF\	4A/ 4a/	.
32BBn/LL	.	.	.
32C/	.	.	.
32BB/	.	.	.
32C/	.	.	.
32D/	.	16r	.
32C/	.	.	.
32BB/	.	16D#/ (16d#/	.
32AA/JJJ	.	.	.
=23	=23	=23	=23
*	*	*^	*
(8AA/L	4.EE\	16E/ 16e/LK)	4.r	.
.	.	8e/ (8ee/	.	f
8GG#/J)	.	.	.	.
.	.	32dd#/LL	.	.
.	.	32ee/	.	.
8r	.	32dd#/	.	.
.	.	32ee/	.	.
.	.	32dd#/	.	.
.	.	32ee/JJJ)	.	.
4G#/ 4Bn/	(8.D\L	8.f/ (8.ff/L	4g#\ 4bn\	f
.	16E\L)	16e/ 16ee/L)	.	.
8r	16F'\	16d'/ 16ddn'/	8r	.
.	16BBn'\JJ	16f'/ 16ff'/JJ	.	.
=24	=24	=24	=24	=24
4c#/ 4e/	(8.G\L	8.b-/ (8.bb-/L	4cc#\ 4ee\	f
.	16A\L)	16a/ 16aa/L)	.	.
8r	16B-'\	16g'/ 16gg'/	8r	.
.	16E'\JJ	16b-'/ 16bb-'/JJ	.	.
*v	*v	*	*	*
*clefG2	*	*	*
*^	*	*	*
4a/	(8.d#\ 8.f#\L	(8.cccn/L	4ccn\ 4dd#\ 4ff#\	f
.	16e\L)	16bbn/L)	.	.
8r	16f#'\	16aa'/	8r	.
.	16d#'\JJ	16ccc'/JJ	.	.
*v	*v	*	*	*
*	*v	*v	*
=25	=25	=25
8dn'/ 8fn'/ 8g#'/	8bn'\ 8ddn'\ 8ffn'\ 8gg#'\	.
8r	8r	.
(8c'/ 8e'/	8a'\ 8cc'\ 8ee'\ (8aa'\	.
*clefF4	*	*
8D'\) 8d'\	8f'\ 8a'\ 8b'\ 8ff'\)	.
8r	8r	.
8E'\ 8Bn'\	8e'\ 8g#'\ 8ee'\	.
=26	=26	=26
(16AA/LL	4a/	.
16C/	.	.
16E/	.	.
16C/	.	.
16BBn/	8r	.
16AA/JJ)	.	.
(16GG#/LL	8r	.
16BB/	.	.
16E/	(8ee'\L	.
16D/	.	.
16C/	8ee'\J)	.
16BB/JJ)	.	.
=27	=27	=27
*^	*	*
8r	(16AA\LL	[8ee\L	.
.	16G#\	.	.
4A/	16A\	16.ee\L]	.
.	16Gn\	.	.
.	.	(64ff\LL	.
.	.	64ee\JJ)	.
.	16F\	16.dd'\	.
.	16E\JJ)	.	.
.	.	32ee'\JJk	.
&((16A/LL&)	4.D\	(4ff\)	.
16A/	.	.	.
16d/	.	.	.
16c#/	.	.	.
16cn/	.	16ee\LL	.
16Bn/JJ)	.	16dd\JJ)	.
=28	=28	=28	=28
*	*	*^	*
(16E\LL	[4.E/	4.r	[8cc\L	<
16A\	.	.	.	.
16e\	.	.	(16.cc\L]	.
16d#\	.	.	.	.
.	.	.	64dd\LL	.
.	.	.	64cc\JJ)	.
16d#\	.	.	16.bn\	.
16c\JJ	.	.	.	.
.	.	.	32cc\JJk	.
4E\]	16Bn/LL	4dd/)	8r	ff
.	16A/	.	.	.
.	16G#/	.	16r	.
.	16F/	.	(16d\LL	.
8EE\	16E/	16cc/LL	16c\	.
.	16D/JJ)	16bn/JJ	16Bn\JJ)	.
=29	=29	=29	=29	=29
8C/	8AA\	16a'/LL	8A\	p
.	.	16e'/	.	.
8r	8r	16c'/	4r	.
.	.	16A'/JJ	.	.
16E'/LL	8AAA\	8r	.	.
16C'/JJ	.	.	.	.
8AA/	8AAA\	4.r	4.r	.
8r	8r	.	.	.
8r	8r	.	.	.
*	*	*clefF4	*clefF4	*
=30	=30	=30	=30	=30
4r	8FF\L	4.r	4r	.
.	8FF\	.	.	.
8r	8FF\J	.	8r	.
(4C/	8FF\L	(4c/	8A\L	p
.	8FF\	.	8A\	.
16D/LL	8FF\J	16d/LL	8A\J	.
16E/JJ)	.	16e/JJ)	.	.
=31	=31	=31	=31	=31
4F/	8FF\L	4f/	8A\ 8c\L	.
.	8FF\	.	8A\ 8c\	.
8F/	8FF\J	8f/	8A\ 8c\J	.
(8.F/L	8FF\L	(8.f/L	8A\ 8c\L	.
.	8FF\	.	8A\ 8c\	.
32G/LL	.	32g/LL	.	.
32F/J	.	32f/J	.	.
16E'/)	8FF\J	16e'/)	8A\ 8c\J	.
16F'/JJ	.	16f'/JJ	.	.
*v	*v	*	*	*
=32	=32	=32	=32
8EE/ 8C/L	8F#/ (8f#/	8B-\ 8c\L	.
8EE/ 8C/	4G/ 4g/)	8B-\ 8c\	.
8EE/ 8C/J	.	8B-\ 8c\J	.
8EE/ 8C/L	8r	8B-\ 8c\L	.
8EE/ 8C/	8r	8B-\ 8c\	.
8EE/ 8C/J	16.G/ (16.g/LL	8B-\ 8c\J	.
.	32Fn/ 32fn/JJk)	.	.
=33	=33	=33	=33
*^	*	*	*
8C/ (8F/L	8GG\L	8c/ (8f/L	8B-\L	.
8C/ 8E/	8GG\	8c/ 8e/	8B-\	.
16.D/L	8GG\J	16.d/L	8B-\J	.
32C/JJk)	.	32c/JJk)	.	.
(4C/	8GG\L	(4c/	8E\ 8B-\L	.
.	8GG\	.	8E\ 8B-\	.
32E/LLL	8GG\J	32e/LLL	8B-\J	.
32D/J)	.	32d/J	.	.
16C/JJ	.	16c/JJ)	.	.
=34	=34	=34	=34	=34
(8C/	8FF\L	8c/	8A\L	<
[4F/)	8FF\	[4f/	8A\ 8c\	.
.	8FF\J	.	8A\ 8c\J	.
(8F/L]	8FF\L	(8f/L]	8A\ 8c\L	.
8E/	8FF\	8e/	8A\ 8c\	.
8E-/J)	8FF\J	8e-/J)	8A\ 8c\J	.
=35	=35	=35	=35	=35
8E-/L	8FF#\L	8e-/L	8A\ 8c\L	ff
8D/	8FF#\	8d/	8A\ 8c\	.
16.C#/L	8FF#\J	16.c#/L	8A\J	.
32D/JJk	.	32d/JJk	.	.
8E-/L	8FF#\L	8e-/L	8A\ 8cn\L	ff
8D/	8FF#\	8d/	8A\ 8c\	.
16.C#/L	8FF#\J	16.c#/L	8A\J	.
32D/JJk	.	32d/JJk	.	.
=36	=36	=36	=36	=36
.	(GGq/LL	.	.	.
.	BB-q/	.	.	.
.	Dq/JJ	.	.	.
8r	2.G\)	32d/	32B-\	f
*	*	*clefG2	*clefG2	*
.	.	16.r	(32bb-\LLL	p
.	.	.	32ccc\	.
.	.	.	32ddd\JJJ)	.
8B-/ 8d/L	.	4r	32r	.
.	.	.	(32ddd\LLL	.
.	.	.	32ccc\	.
.	.	.	32bb-\JJJ)	.
8B-/ 8d/J	.	.	32r	.
.	.	.	(32bb-\LLL	.
.	.	.	32aa\	.
.	.	.	32gg\JJJ)	.
8B-/ 8d/L	.	4.r	32r	.
.	.	.	(32ff#\LLL	.
.	.	.	32gg\	.
.	.	.	32dd\JJJ)	.
8B-/ 8d/	.	.	32r	.
.	.	.	(32dd\LLL	.
.	.	.	32cc\	.
.	.	.	32b-\JJJ)	.
8B-/ 8d/J	.	.	32r	.
.	.	.	(32b-\LLL	.
.	.	.	32a\	.
.	.	.	32g\JJJ)	.
=37	=37	=37	=37	=37
8Fn/L	8GG#\L	8fn/L	8Bn\ 8d\L	ff
8E/	8GG#\	8e/	8B\ 8d\	.
16.D#/L	8GG#\J	16.d#/L	8B\J	.
32E/JJk	.	32e/JJk	.	ff
8F/L	8GG#\L	8f/L	8B\ 8dn\L	.
8E/	8GG#\	8e/	8B\ 8d\	.
16.D#/L	8GG#\J	16.d#/L	8B\J	.
32E/JJk	.	32e/JJk	.	.
*	*	*v	*v	*
=38	=38	=38	=38
.	(AAq/LL	.	.
.	C#q/	.	.
.	(Eq/JJ)	.	.
8r	2.A\)	32c#/ 32e/	.
.	.	(32ccc#\LLL	.
.	.	32ddd\	.
.	.	32eee\JJJ)	.
8c#/ 8e/L	.	32r	.
.	.	(32eee\LLL	.
.	.	32ddd\	.
.	.	32ccc#\JJJ	.
8c#/ 8e/J	.	32r	.
.	.	(32ccc#\LLL)	.
.	.	32bbn\	.
.	.	32aa\JJJ)	.
8c#/ 8e/L	.	32r	.
.	.	(32gg#\LLL	.
.	.	32aa\	.
.	.	32ee\JJJ)	.
8c#/ 8e/	.	32r	.
.	.	(32ee\LLL	.
.	.	32dd\	.
.	.	32cc#\JJJ)	.
8c#/ 8e/J	.	32r	.
.	.	(32cc#\LLL	.
.	.	32bn\	.
.	.	32a\JJJ)	.
=39	=39	=39	=39
.	AAq/LL	.	.
.	Dq/	.	.
.	(Fq/JJ	.	.
8r	2.A\)	32r	.
.	.	(32ddd\LLL	.
.	.	32eee\	.
.	.	32fff\JJJ)	.
8d/ 8f/L	.	32r	.
.	.	(32fff\LLL	.
.	.	32eee\	.
.	.	32ddd\JJJ)	.
8d/ 8f/J	.	32r	.
.	.	(32ccc#\LLL	.
.	.	32ddd\	.
.	.	32aa\JJJ)	.
8d/ 8f/L	.	32r	.
.	.	(32gg#\LLL	.
.	.	32bb-\	.
.	.	32aa\JJJ)	.
8d/ 8f/	.	32r	.
.	.	(32aa\LLL	.
.	.	32ggn\	.
.	.	32ff\JJJ)	.
8d/ 8f/J	.	32r	.
.	.	(32ff\LLL	.
.	.	32ee\	.
.	.	32dd\JJJ)	.
=40	=40	=40	=40
.	AAq/LL	.	.
.	Eq/	.	.
.	Gq/JJ	.	.
8r	2.A\	32r	.
.	.	(32gg\LLL	.
.	.	32aa\	.
.	.	32bb-\JJJ)	.
8e/ 8g/L	.	32r	.
.	.	(32bb-\LLL	.
.	.	32aa\	.
.	.	32gg\JJJ	.
8e/ 8g/J	.	32r	.
.	.	(32gg\LLL)	.
.	.	32ff\	.
.	.	32ee\JJJ)	.
8e/ 8g/L	.	32r	.
.	.	(32ee\LLL	.
.	.	32dd\	.
.	.	32cc#\JJJ)	.
8e/ 8g/	.	32r	.
.	.	(32b-/LLL	.
.	.	32a/	.
.	.	32g/JJJ)	.
8e/ 8g/J	.	32r	.
.	.	(32g/LLL	.
.	.	32f/	.
.	.	32e/JJJ)	.
=41	=41	=41	=41
8r	2.r	32r	.
.	.	(32e/LLL	.
.	.	32d/	.
.	.	32c#/JJJ)	.
32r	.	4r	.
(32B-/LLL	.	.	.
32A/	.	.	.
32G/JJJ)	.	.	.
32r	.	.	.
(32G/LLL	.	.	.
32F/	.	.	.
32E/JJJ)	.	.	.
32r	.	4.r	.
(32E/LLL	.	.	.
32D/	.	.	.
32C#/JJJ)	.	.	.
8r	.	.	.
8r	.	.	.
=42	=42	=42	=42
32r	2.r	8r	.
(32B-/LLL	.	.	.
32A/	.	.	.
32G/JJJ)	.	.	.
4r	.	8r	.
.	.	8r	.
4.r	.	32r	.
.	.	(32e/LLL	.
.	.	32d/	.
.	.	32c#/JJJ)	.
.	.	8r	.
.	.	8r	.
=43	=43	=43	=43
4.r	2.r	32r	.
.	.	(32e/LLL	f
.	.	32d/	.
.	.	32c#/JJJ)	.
.	.	[8b-/L	mf
.	.	32b-/LL]	>
.	.	32a/	.
.	.	32g/	.
.	.	32f#/JJJ	.
8r	.	32fn/LLL	.
.	.	32e/	.
.	.	32d#/	.
.	.	32dn/JJJ	.
32c#/LLL	.	8r	.
32cn/	.	.	.
32Bn/	.	.	.
32B-/JJJ	.	.	.
32A/LLL	.	8r	.
32G/	.	.	.
32F/	.	.	.
32E/JJJ	.	.	.
=44	=44	=44	=44
*	*	*^	*
4.DD/ 4.FF/ 4.AA/ 4.D/	4.r	(8d/L	4.F\ 4.A\	p
.	.	8c#/	.	.
.	.	8d/J	.	.
8FF/ 8AA/L	4.DD\ (4.D\	8f/L	8F\ 8A\L	.
8GG/ 8BB-/	.	8c#/	8G\	.
8FF/ 8AA/J)	.	8d/J)	8F\ 8A\J	.
=45	=45	=45	=45	=45
4.DD/ 4.EE/ 4.GG/ 4.BB-/ 4.D/	4.r	(8d/L	4.E\ 4.G\ 4.B-\	.
.	.	8c#/	.	.
.	.	8d/J	.	.
(8D/	4.DD\ 4.GG\ 4.BB-\	8g/L	4G\ 4B-\	.
8E/	.	8c#/	.	.
8D/)	.	8d/J)	8G\ 8B-\	.
*v	*v	*	*	*
=46	=46	=46	=46
(4CC#/ 4C#/	(8f/L	4G\ 4B-\	.
.	8e/	.	.
8DD/) 8D/	8d/J	8G\ 8B-\	.
(8FF/ 8F/L	4c#/	4G\ 4B-\	.
8EE/ 8E/	.	.	.
8DD/) 8D/J	8d/)	8G\ 8B-\	.
=47	=47	=47	=47
(4CC#/ 4C#/	(8f/L	4G\ 4B-\	.
.	8e/)	.	.
8Cn/ 8D/	8f#/J	8A\ 8d\	.
4BB-/ 4D/	(8a/L	4d\	.
.	8g/	.	.
8FF#/) 8D/ 8F#/	8a/J)	8c\ 8d\	.
=48	=48	=48	=48
4GG/ 4D/ 4G/	8b-/	8B-\ 8d\	>
.	(8b-'/L	8r	.
8r	8b-'/J	8r	.
4r	8b-'/L	4r	.
.	8b-/	.	.
8r	8b-/J)	8r	.
=49	=49	=49	=49
8G\ 8B-\L	8b-/L	(8e-\L	pp
8G\ 8B-\	8b-/	8d\	.
8G\ 8B-\J	8b-/J	8e-\J	.
8G\ 8B-\L	8b-/L	8g\L	.
8G\ 8B-\	8b-/	8d\	.
8G\ 8B-\J	8b-/J	8e-\J)	.
=50	=50	=50	=50
8G-\ 8B-\ 8e-\L	(8ee-/L	8b-\L	.
8G-\ 8B-\ 8e-\	8dd/	8b-\	.
8G-\ 8B-\ 8e-\J	8ee-/J	8b-\J	.
8G-\ 8B-\ 8e-\L	8gg-/L	8b-\L	.
8G-\ 8B-\ 8e-\	8dd/	8b-\	.
8G-\ 8B-\ 8e-\J	8ee-/J)	8b-\J	.
=51	=51	=51	=51
8F\ 8A\ 8c\ 8e-\L	(8aa/L	8a\ 8ee-\L	<
8F\ 8A\ 8c\ 8e-\	8gg#/	8ee-\	.
8F\ 8A\ 8c\ 8e-\J	8aa/J	8ee-\J	.
8F#\ 8A\ 8c\ 8e-\L	8ccc/ 8eee-/L	8ee-\L	.
8F#\ 8A\ 8c\ 8e-\	8eee-/	8ee-\ 8gg#\	.
8F#\ 8A\ 8c\ 8e-\J	8eee-/J)	8ee-\ 8aa\J	.
=52	=52	=52	=52
(16G\LL	4ddd/	4dd\ 4bb-\	.
16B-\	.	.	.
16d\	.	.	.
16B-\	.	.	.
16G\	8r	8r	.
16B-\JJ	.	.	.
16En\LL	8r	8r	.
16G\ 16B-\	.	.	.
16c\	(8ccc'/L	8bb-\L	.
16G\ 16B-\	.	.	.
16E\	8ccc'/J	8bb-\J)	.
16B-\ 16d\JJ)	.	.	.
=53	=53	=53	=53
(16F\LL	(8.ddd/L	4.bb-\	.
16B-\	.	.	.
16d\	.	.	.
16B-\	32eee-/LL	.	.
.	32ddd/JJ)	.	.
16F\	16.ccc#'/L	.	f
16B-\JJ)	.	.	.
.	32ddd'/JJk	.	.
(16F\LL	4.r	(8.fff\L	.
16A\	.	.	.
16e-\	.	.	.
16A\	.	16eee-\L)	.
16F\	.	(16ddd'\	.
16A\JJ)	.	16cccn'\JJ)	.
*	*v	*v	*
=54	=54	=54
*^	*	*
4.r	(16B-\LL	(16ccc#\LL	.
.	16F\	16ddd\JJ)	.
.	16D\	8r	.
.	16BB-\	.	.
.	16GG\	8r	.
.	16FF\JJ)	.	.
16EEn/LL	4EEn\	8r	.
16C/	.	.	.
16GG/	.	8ccn'\ 8bb-'\ (8cccn'\L	.
16C/	.	.	.
16BB-/	8EE\	8cc'\ 8bb-'\ 8ccc'\J)	.
16C/JJ	.	.	.
=55	=55	=55	=55
*	*	*^	*
16FF/LL	4.FF\	[8ddd\L	4.r	ff
16F/	.	.	.	.
16BB-/	.	(32ddd\LL]	.	.
.	.	32bb-\)	.	.
16F/	.	32ff'\	.	.
.	.	32dd'\JJJ	.	.
16D/	.	32b-'/LLL	.	.
.	.	32f'/	.	.
16F/JJ	.	32d'/	.	.
.	.	32B-/JJJ	.	.
16r	4FF\	4A\	(8.f/L	p
(16C/LL	.	.	.	.
16F/	.	.	.	.
16E-/	.	.	16e-/L	.
16C/	8FF\	8A\	16c/	.
16F/JJ)	.	.	16f/JJ)	.
=56	=56	=56	=56	=56
4D/	4BB-\	4B-/	4.r	.
8r	8r	8d/	.	.
(4D/	4.BB-\	4f/	4G#\	.
16En/LL	.	(16en/LL	8G#\	.
16F/JJ)	.	16d/JJ)	.	.
=57	=57	=57	=57	=57
8F/L	4AA\	(8d/L	4A\	.
8E/J	.	8c#/J)	.	.
8r	8r	(16.d/LL	8r	.
.	.	32e/JJk)	.	.
8.D/L	4.BB-\	(8f/L	4G#\	.
.	.	32e/LL	.	.
.	.	32f/	.	.
32C#/LL	.	32e/	.	.
32D/JJ	.	32f/JJ	.	.
32C#/LL	.	32gn/LL	8G#\	.
32D/	.	32f/	.	.
32E/	.	32e/	.	.
32F/JJJ	.	32d/JJJ)	.	.
=58	=58	=58	=58	=58
8F/L	4AA\	8d/L	4A\	.
8E/J	.	8c#/J	.	.
8r	8r	16.r	8r	.
.	.	32c#/	.	f
8.GG/ 8.C#/ 8.E/L	4.r	8.B-/ 8.c#/ 8.e/ 8.b-/L	4.r	.
16AA/ 16C#/ 16E/L	.	16A''/ 16c#''/ 16e''/ 16a''/L	.	.
16BB-''/ 16C#''/ 16E''/	.	16G''/ 16c#''/ 16e''/ 16g''/	.	.
16EE''/ 16GG''/ 16E''/JJ	.	16B-''/ 16c#''/ 16b-''/JJ	.	.
*v	*v	*	*	*
*	*v	*v	*
=59	=59	=59
8FF''/ 8AA''/ 8F''/	8A''/ 8d''/ 8a''/	.
8r	8r	.
8GG'/ 8D'/ 8E'/L	8B-'/ 8d'/ 8e'/L	.
8AA'/ 8D'/ 8F'/J	8A'/ 8d'/ 8f'/J	.
8r	8r	.
8AAA'/ 8AA'/	8E'/ 8G'/ 8A'/ 8c#'/	.
=60	=60	=60
*^	*	*
4DD'/ 4D'/	4r	4F'/ 4A'/ 4d'/	.
8D/	8r	8r	.
4F^/	4.BB-\	4r	.
16E/LL	.	8G#/ (8g#/	.
16D/JJ	.	.	.
=61	=61	=61	=61
8D/L	4AA\	16A/ 16a/LK)	.
.	.	8a/ 8aa/	.
8C#/J	.	.	.
.	.	16g'/ 16gg'/L	.
16.r	8r	16f'/ 16ff'/	.
.	.	16e'/ 16ee'/JJ	.
32D/	.	.	.
8F/L	4BB-\	4d/ 4dd/	ff
32E/LL	.	.	.
32F/	.	.	.
32E/	.	.	.
32F/JJ	.	.	.
32G/LL	8r	16r	.
32F/	.	.	.
32E/	.	16G#/ (16g#/	.
32D/JJJ	.	.	.
=62	=62	=62	=62
*	*	*^	*
4AA\	(8D/L	16A/ 16a/LK)	4.r	.
.	.	8a/ 8aa/	.	.
.	8C#/J)	.	.	.
.	.	(32gg#/LL	.	.
.	.	32aa/JJ	.	.
8r	8r	32gg#/LL	.	.
.	.	32aa/	.	.
.	.	32gg#/	.	.
.	.	32aa/JJJ)	.	f
(8.G\L	4.c#/ 4.e/	(8.b-/ 8.bb-/L	4.cc#\ 4.ee\	.
16A\L)	.	16a/) 16aa/L	.	.
16B-'\	.	16gn'/ 16ggn'/	.	.
16E'\JJ	.	16b-'/ 16bb-'/JJ	.	.
*v	*v	*	*	*
*clefG2	*	*	*
=63	=63	=63	=63
*^	*	*	*
4.f#/ 4.a/	(8.cn\L	(8.e-/ 8.ee-/L	4.f#\ 4.a\	f
.	16d\L)	16d/) 16dd/L	.	.
.	16e-'\	16cn'/ 16ccn'/	.	.
.	16A'\JJ	16e-'/ 16ee-'/JJ	.	.
4.g#/ 4.bn/	(8.d\L	(8.fn/ 8.ffn/L	4.g#\ 4.bn\	f
.	16en\L)	16en/) 16een/L	.	.
.	16fn'\	16d'/ 16dd'/	.	.
.	16d'\JJ	16f/ 16ff/JJ	.	.
=64	=64	=64	=64	=64
8cc#/	8e\ 8gn\ 8b-\	8cc#/	8e\ 8gn\ 8b-\	.
8r	8r	8r	8r	.
(8f'/ 8a'/L	2r	2r	8dd'\ 8ff'\ 8aa'\ (8ddd'\L	p
8G'/) 8d'/ 8e'/ 8g'/J	.	.	8b-'\ 8dd'\ 8ee'\ 8bb-'\J)	.
8r	.	.	8r	.
*clefF4	*clefF4	*	*	*
8A'\ 8c#'\ 8e'\	.	.	8a'\ 8cc#'\ 8ee'\ 8aa'\	.
*	*	*v	*v	*
=65	=65	=65	=65
2.D/	(8DD\L	48r	.
.	.	48F/LLL	.
.	.	48A/	.
.	.	48d/	.
.	.	48A/	.
.	.	48F/JJJ	.
.	8CC#\	48r	.
.	.	48F/LLL	.
.	.	48A/	.
.	.	48d/	.
.	.	48A/	.
.	.	48F/JJJ	.
.	8DD\J	48r	.
.	.	48F/LLL	.
.	.	48A/	.
.	.	48d/	.
.	.	48A/	.
.	.	48F/JJJ	.
.	8FF\L	48r	.
.	.	48F/LLL	.
.	.	48A/	.
.	.	48d/	.
.	.	48A/	.
.	.	48F/JJJ	.
.	8CC#\	48r	.
.	.	48G/LLL	.
.	.	48A/	.
.	.	48d/	.
.	.	48A/	.
.	.	48F/JJJ	.
.	8DD\J)	48r	.
.	.	48F/LLL	.
.	.	48A/	.
.	.	48d/	.
.	.	48A/	.
.	.	48F/JJJ	.
=66	=66	=66	=66
2.BB-/	(8BBB-\L	48r	.
.	.	48F/LLL	<
.	.	48B-/	.
.	.	48d/	.
.	.	48B-/	.
.	.	48F/JJJ	.
.	8AAA\	48r	.
.	.	48F/LLL	.
.	.	48B-/	.
.	.	48d/	.
.	.	48B-/	.
.	.	48F/JJJ	.
.	8BBB-\J	48r	.
.	.	48F/LLL	.
.	.	48B-/	.
.	.	48d/	.
.	.	48B-/	.
.	.	48F/JJJ	.
.	8DD\L	48r	.
.	.	48F/LLL	.
.	.	48B-/	.
.	.	48d/	.
.	.	48B-/	.
.	.	48F/JJJ	.
.	8AAA\	48r	.
.	.	48F/LLL	.
.	.	48B-/	.
.	.	48d/	.
.	.	48B-/	.
.	.	48F/JJJ	.
.	8BBB-\J)	48r	.
.	.	48F/LLL	.
.	.	48B-/	.
.	.	48d/	.
.	.	48B-/	.
.	.	48F/JJJ	.
=67	=67	=67	=67
(8GGG-\L	4.GGG-/	48r	.
.	.	48G-/LLL	f
.	.	48B-/	.
.	.	48e-/	.
.	.	48B-/	.
.	.	48G-/JJJ	.
8BBB-\	.	48r	.
.	.	48G-/LLL	.
.	.	48B-/	.
.	.	48e-/	.
.	.	48B-/	.
.	.	48G-/JJJ	.
8EE-\J)	.	48r	.
.	.	48G-/LLL	.
.	.	48B-/	.
.	.	48e-/	.
.	.	48B-/	.
.	.	48G-/JJJ	.
=	=	=	=
(8GG-\L	4.GG-/	48r	.
.	.	48G/LLL	.
.	.	48B-/	.
.	.	48e/	.
.	.	48B-/	.
.	.	48G/JJJ	.
8BB-\	.	48r	.
.	.	48G/LLL	.
.	.	48B-/	.
.	.	48e/	.
.	.	48B-/	.
.	.	48G/JJJ	.
8E-\J)	.	48r	.
.	.	48G/LLL	.
.	.	48B-/	.
.	.	48e/	.
.	.	48B-/	.
.	.	48G/JJJ	.
=68	=68	=68	=68
(8AAn\L	4.AAn/	48r	.
.	.	48An/LLL	.
.	.	48c/	.
.	.	48f#/	.
.	.	48e-/	.
.	.	48c/JJJ	.
[8F#\	.	48r	.
.	.	48A/LLL	.
.	.	48c/	.
.	.	48f#/	.
.	.	48e-/	.
.	.	48c/JJJ	.
8E-\ 8F#\J]	.	48r	.
.	.	48A/LLL	.
.	.	48c/	.
.	.	48f#/	.
.	.	48e-/	.
.	.	48c/JJJ	.
8BB-\L	4.BB-/	48r	.
.	.	48B-/LLL	.
.	.	48e-/	.
.	.	48gn/	.
.	.	48e-/	.
.	.	48B-/JJJ	.
[8Gn\	.	48r	.
.	.	48B-/LLL	.
.	.	48e-/	.
.	.	48g/	.
.	.	48e-/	.
.	.	48B-/JJJ	.
8E-\) 8G\J]	.	48r	.
.	.	48B-/LLL	.
.	.	48e-/	.
.	.	48g/	.
.	.	48e-/	.
.	.	48B-/JJJ	.
=69	=69	=69	=69
4.BBn/	8BBn\L	48r	.
.	.	48Bn/LLL	.
.	.	48d/	.
.	.	48a-/	.
.	.	48fn/	.
.	.	48d/JJJ	.
.	[8A-\	48r	.
.	.	48B/LLL	.
.	.	48d/	.
.	.	48a-/	.
.	.	48f/	.
.	.	48d/JJJ	.
.	8Fn\ 8A-\J]	48r	.
.	.	48B/LLL	.
.	.	48d/	.
.	.	48a-/	.
.	.	48f/	.
.	.	48d/JJJ	.
8r	(4C\	48r	.
.	.	48c/LLL	.
.	.	48f/	.
.	.	48an/	.
.	.	48f/	.
.	.	48c/JJJ	.
8An/L	.	48r	.
.	.	48c/LLL	.
.	.	48f/	.
.	.	48a/	.
.	.	48f/	.
.	.	48c/JJJ	.
&(8B-/J&)	8C#\) 8E\ 8G\	64r	.
.	.	64c#/LLLL	.
.	.	64en/	.
.	.	64g/	.
.	.	64b-/	.
.	.	64g/	.
.	.	64e/	.
.	.	64c#/JJJJ	.
=70	=70	=70	=70
8r	4D\	48r	.
.	.	48d/LLL	.
.	.	48f/	.
.	.	48bn/	.
.	.	48a-/	.
.	.	48f/JJJ	.
8F/ 8A-/ (8Bn/L	.	48r	.
.	.	48d/LLL	.
.	.	48f/	.
.	.	48b/	.
.	.	48a-/	.
.	.	48f/JJJ	.
8F#/ 8An/ 8c/J)	8E-\	64r	.
.	.	64e-/LLLL	.
.	.	64f#/	.
.	.	64an/	.
.	.	64cc/	.
.	.	64a/	.
.	.	64f#/	.
.	.	64e-/JJJJ	.
=	=	=	=
8r	(4En\	48r	.
.	.	48en/LLL	.
.	.	48g/	.
.	.	48cc#/	.
.	.	48b-/	.
.	.	48g/JJJ	.
8G/ 8B-/ 8c#/L	.	48r	.
.	.	48e/LLL	.
.	.	48g/	.
.	.	48cc#/	.
.	.	48b-/	.
.	.	48g/JJJ	.
8A/ &(8d/J&)	8F\)	48r	.
.	.	48fn/LLL	.
.	.	48a/	.
.	.	48dd/	.
.	.	48a/	.
.	.	48f/JJJ	.
=71	=71	=71	=71
8r	4.G\	64r	.
.	.	64g\LLLL	ff
.	.	64b-\	.
.	.	64dd\	.
.	.	64ee\	.
.	.	64dd\	.
.	.	64b-\	.
.	.	64g\JJJJ	.
8B-/ 8d/ 8e/L	.	64r	.
.	.	64g\LLLL	.
.	.	64b-\	.
.	.	64dd\	.
.	.	64ee\	.
.	.	64dd\	.
.	.	64b-\	.
.	.	64g\JJJJ	.
8B-/ 8d/ 8e/J	.	64r	.
.	.	64g\LLLL	.
.	.	64b-\	.
.	.	64dd\	.
.	.	64ee\	.
.	.	64dd\	.
.	.	64b-\	.
.	.	64g\JJJJ	.
8r	4.G#\	64r	.
.	.	64g#\LLLL	.
.	.	64bn\	.
.	.	64dd\	.
.	.	64ee\	.
.	.	64dd\	.
.	.	64b\	.
.	.	64g#\JJJJ	.
8Bn/ 8d/ 8e/L	.	64r	.
.	.	64g#\LLLL	.
.	.	64b\	.
.	.	64dd\	.
.	.	64ee\	.
.	.	64dd\	.
.	.	64b\	.
.	.	64g#\JJJJ	.
8B/ 8d/ 8e/J	.	64r	.
.	.	64g#\LLLL	.
.	.	64b\	.
.	.	64dd\	.
.	.	64ee\	.
.	.	64dd\	.
.	.	64b\	.
.	.	64g#\JJJJ	.
*v	*v	*	*
*clefG2	*	*
=72	=72	=72
*^	*	*
8r	2.A\	32a\ 32dd\ 32ff\	p
.	.	(32ddd\LLL	.
.	.	32eee\	.
.	.	32fff\JJJ)	.
8d/ 8f/ 8a/L	.	32r	.
.	.	(32fff\LLL	.
.	.	32eee\	.
.	.	32ddd\JJJ)	.
8d/ 8f/ 8a/J	.	32r	.
.	.	(32ccc#\LLL	.
.	.	32ddd\	.
.	.	32aa\JJJ)	.
8d/ 8f/ 8a/L	.	32r	.
.	.	(32gg#\LLL	.
.	.	32bb-\	.
.	.	32aa\JJJ)	.
8d/ 8f/ 8a/	.	32r	.
.	.	(32aa\LLL	.
.	.	32ggn\	.
.	.	32ff\JJJ)	.
8d/ 8f/ 8a/J	.	32r	.
.	.	(32ff\LLL	.
.	.	32ee\	.
.	.	32dd\JJJ)	.
=73	=73	=73	=73
8r	4.A\	32r	.
.	.	(32gg\LLL	.
.	.	32aa\	.
.	.	32bb-\JJJ)	.
8d/ 8e/ 8g/L	.	32r	.
.	.	(32bb-\LLL	.
.	.	32aa\	.
.	.	32gg\JJJ)	.
8d/ 8e/ 8g/J	.	32r	.
.	.	(32gg\LLL	.
.	.	32ff\	.
.	.	32ee\JJJ)	.
8r	4.A\	32r	.
.	.	(32ee\LLL	.
.	.	32dd\	.
.	.	32cc#\JJJ)	.
8c#/ 8e/ 8g/L	.	32r	.
.	.	(32b-/LLL	.
.	.	32a/	.
.	.	32g/JJJ)	.
8c#/ 8e/J	.	32r	.
.	.	(32g/LLL	.
.	.	32f/	.
.	.	32e/JJJ)	.
*v	*v	*	*
*clefF4	*	*
=74	=74	=74
*^	*	*
8r	2.AA\	32r	.
.	.	(32dd\LLL	.
.	.	32ee\	.
.	.	32ff\JJJ)	.
8D/ 8F/ 8A/L	.	32r	.
.	.	(32ff\LLL	.
.	.	32ee\	.
.	.	32dd\JJJ)	.
8D/ 8F/ 8A/J	.	32r	.
.	.	(32cc#\LLL	.
.	.	32dd\	.
.	.	32a\JJJ)	.
8D/ 8F/ 8A/L	.	32r	.
.	.	(32g#/LLL	.
.	.	32b-/	.
.	.	32a/JJJ)	.
8D/ 8F/ 8A/	.	32r	.
.	.	(32a/LLL	.
.	.	32gn/	.
.	.	32f/JJJ)	.
8D/ 8F/ 8A/J	.	32r	.
.	.	(32f/LLL	.
.	.	32e/	.
.	.	32d/JJJ)	.
=75	=75	=75	=75
8r	4.AA\	32r	.
.	.	(32g/LLL	.
.	.	32a/	.
.	.	32b-/JJJ)	.
8D/ 8E/ 8G/L	.	32r	.
.	.	(32b-/LLL	.
.	.	32a/	.
.	.	32g/JJJ)	.
8D/ 8E/ 8G/J	.	32r	.
.	.	(32g/LLL	.
.	.	32f/	.
.	.	32e/JJJ)	.
8r	4.AA\	32r	.
.	.	(32e/LLL	.
.	.	32d/	.
.	.	32c#/JJJ)	.
8C#/ 8E/ 8G/L	.	32r	.
.	.	32B-/LLL	.
.	.	32A/	.
.	.	32G/JJJ	.
8C#/ 8E/J	.	32r	.
.	.	32G/LLL	.
.	.	32F/	.
.	.	32E/JJJ	.
*v	*v	*	*
=76	=76	=76
4DD/ 4D/	4r	.
8r	8r	.
4r	(8ff\L	pp
.	8cc#\	.
8r	8dd\J)	.
=77	=77	=77
4.G\ 4.d\ 4.g\	4.b-\ 4.dd\ 4.bb-\	.
4r	(8bb-\L	pp
.	8cc#\	.
8r	8dd\J)	.
=78	=78	=78
4.F\ 4.d\ 4.f\	4.a\ 4.dd\ 4.aa\	.
4.r	(8fff\L	pp
.	8ccc#\	.
.	8ddd\J)	.
*clefG2	*	*
=79	=79	=79
(8dd\L	(8ddd\L	.
8a\	8aa\	.
8b-\J)	8bb-\J)	.
(8b-/L	(8bb-\L	.
8f#/	8ff#\	.
8g/J)	8gg\J)	.
=80	=80	=80
8g/L	(8gg\L	.
8d/	8dd\	.
&(8e-/J&)	8ee-\J)	.
*clefF4	*	*
4E-\	(4e-/ 4ee-/	.
8D\	8d/ 8dd/	.
=81	=81	=81
&(4C#\&)	4c#/) 4cc#/	.
8r	8r	.
4r	(4gg#\	pp
8r	8aa\)	.
=82	=82	=82
4.DD/ 4.D/	4.A/ 4.d/ 4.f/	.
4r	(4gg#\	.
8r	8aa\)	.
=83	=83	=83
4.AAA/ 4.AA/	4.Gn/ 4.c#/ 4.en/	.
4r	(4gg#\	.
8r	8aa\)	.
=84	=84	=84
*^	*	*
4D/	4.DD\	4r	.
*	*	*clefF4	*clefF4
8BB-'/ (8D'/	.	8G'\ (8d'\	pp
4AA'/ 4D'/	4.DD\	4F'\ 4d'\	.
8GG'/ 8D'/)	.	8E'\ 8B-'\ 8c#'\ 8d'\)	.
=85	=85	=85	=85
4FF'/ (4D'/	4.DD\	4F'\ 4A'\ (4d'\	.
8BB-'/ 8D'/	.	8G'\ 8d'\	.
4AA/ 4D/	4.DD\	4F'\ 4d'\	.
8GG'/ 8D'/)	.	8E'\ 8B-'\ 8c#'\ 8d'\)	.
*v	*v	*	*
=86	=86	=86
4DD/ 4FF/ 4AA/ 4D/	4F\ 4A\ 4d\	.
*	*clefG2	*clefG2
8r	(8cc#\	pp
4r	8dd\)	.
.	8r	.
8r	(8ccc#\	.
=87	=87	=87
4r	8ddd\)	.
.	8r	.
8DD/	8r	pp
4DD/	4r	.
8r;	8r;	.
=	=	=
*-	*-	*-
!!!ENC: Craig Stuart Sapp
!!!END: 2008/10/29/
